X:1
T:Wagner - Parsifal Act 3 (Transformation Music, Vocal Score)
T:Transformation Music (Piano Solo)
T:WWV 111, Richard Wagner
T:from Parsifal Act 3
C:Richard Wagner
%%score { ( 1 2 6 ) | ( 3 4 5 ) }
L:1/8
Q:1/4=66
M:3/4
K:D
V:1 treble nm="Piano" snm="Pno."
V:2 treble 
V:6 treble 
V:3 bass 
V:4 bass 
V:5 bass 
V:1
!p!"^Im Zeitmass" [^Fd]6 | e2 d3 f | e2 d3 e | d2 _B3 g | =f2 e2!mf![Q:1/4=64] [_B_e]2- | %5
 b2[Q:1/4=60]!p! a2!mf![Q:1/4=66] [_B_e]2-[Q:1/4=62] | b2!p! a2[Q:1/4=54] z _B- | B6- || %8
[K:C][M:4/4]!p![Q:1/4=52]"^Langsam" _B6 A>_A | [_EG]8 |!pp! F7 C | ^D6- D z || %12
[M:6/4] z4 z4 z2[K:bass] (.[D,G,B,D]2 | .[E,G,B,E]4) z4 z2 (.[D,G,B,D]2 ||[M:4/4] [E,^G,B,E]8 || %15
[K:E]!p! [D,D]8) |!p! z4 z2 [C,E,C]>[C,E,C] |"_cresc." [B,,D,G,]4 z2 [E,G,E]>[E,G,E] | %18
 C,4!f! z2[K:treble] [G,EG](3[G,E]/[E,B,]/[G,E]/ | [CEAc]4- [CEAc][G,DGB][A,CFA]>[B,=EG] | %20
 [CDA]>[B,DF] [B,EB]3 [B,EG][B,E][CEG] | [B,DF]>[B,DG][B,DG]>[A,CFA] [A,CFA]4 | %22
!f! [E,A,CE]>[A,CF][A,CF]>[B,EG] [B,EG]4 | %23
 [G,B,D]>[G,B,E][G,B,E]>[F,^A,C] [F,A,C]>[F,A,D][F,A,D]>[=F,_B,=D=F] || %24
[K:Db]!ff![Q:1/4=60]"^Immer feierlich \ndas Zeitmaß \nzurückhaltend\n" [F,B,=DF]6- [F,B,DF] z | %25
 z2 [=DFA_c]4- [DFAc][A,D^F] | (^F4 =G3 B | [=A,=D=F]4 [=G,^C=E]3 [^C=G=A]) | %28
!p! ([=DF=A]2 [F,=A,D]4- [F,A,D]) z | z2!ff! ([^F=Ace]4- [FAce][CFB] | %30
"_dim." [C^FB]4 [=B,=G=B]3 [CGc]-) | (c6 _c_B-) |!p! ([=C-E-G-B]4 [CEG=A]2) (!>![CEB]2 | %33
 ([B,D=E]6) [_E,CF]2 | G6- G/F/E | [G,A,=E]3) [F,A,F]- [F,A,F]2!p! ([FAd]2 | %36
 [B,D=E=G]6) ([_C=Fd]2 | [B,D=E=G]6) [_G,_EA]2 ||[K:E] A4- A2- A/G/F | %39
 [A,^^F]3 [G,G]- [G,EG]2 ([Ee]2 | =G3 ^G"_dim." A2- A/^G/)F | %41
!p! [A,^^F]3 [G,G] z!f! ([DA=c]2 [A,D^^F]) |!>(! ([A,D^^F]3 [G,EG])!>)! z ([D^FA=c]2 [A,D^^F]) || %43
[K:C] ([B,_EG]4 _A3 _c | ([_B,_E_G]8) | _G4 F4) | %46
[K:bass] !^![=E,=G,_B,_D=E]4- [E,G,B,DE] z !^![_B,_B]2 | %47
!ff! !^![=E,=G,_B,_D=E]4- [E,G,B,DE] z !^![_B,_B]2 | %48
!f!"_cresc." !^![=E,G,_B,_D=E]2 !^![_B,_B]2 !^![E,G,B,DE]2 !^![_B,_B]2 | %49
 !^![=E,G,_B,_D=E]2 !^![^F,B,D^F]2 [G,B,DG]3 .[F,F]/.[=E,=E]/ |!ff! !^![^D,^F,=A,C^D]8 | %51
 !^![E,G,E]6 !^![^F,A,C^D^F]2 | !^![G,EG]6 !^![C^D]2 | !^![E,G,E]6 !^![^F,A,C^D]2 | %54
 z3/2 (3(B,/4C/4D/4 !^!C2) !^!B,!^!A,!^!G,>!^!^F, | %55
 z3/2 (3(^D/4E/4^F/4 !^!E2) !^!=D!^!C!^!B,>!^!A, | %56
 E3/2 (3(B,/4C/4D/4 !^!C2) !^!B,!^!A,!^!G,>!^!^F, | %57
 z3/2 (3(^D/4E/4^F/4 !^!E2) !^!=D!^!C!^!B,>!^!A, | %58
[K:treble] E3/2 (3(^F/4G/4A/4 !^!G2) !^!^F!^!E (3!^!_E!^!=D!^!C | %59
!ff! z3/2 (3(E/4F/4G/4 !^!F2) !^!=E!^!D (3!^!C!^!B,!^!A, | %60
 z3/2 (3(^D/4E/4^F/4 !^!E2)"_dim." !^!D!^!^C (3!^!=C!^!B,!^!A, | %61
 z3/2 (3(C/4D/4E/4 !^!D2) !^!C!^!B, (3!^!=A,!^!G,!p!!^!^F, |!mf! !^![E,G,B,E]4 z4 | %63
 z4 z2 !tenuto![G,B,D]2 | !tenuto![E,G,B,E]4 z4 | z4 z2!p! [G,B,D]2 | [E,G,B,E]4 z4 | %67
 z4 z2!p! [G,B,D]2 |!p! [E,G,B,E]8 |] %69
V:2
 z2 (A3 f | (F6 | =F6) | (E4 G2 | _B4) x) _b- | [Be]2 [A=c]2 x _b- | [Be]2 [A=c]2 _E2- | E6- || %8
[K:C][M:4/4] _E8 | x8 | ^E8 | A,6- A, x ||[M:6/4] x10[K:bass] x2 | x12 ||[M:4/4] x8 || %15
[K:E] ([G,B,]4 [^^F,^A,]4) | x8 | x8 | x6[K:treble] x2 | x8 | x8 | x8 | x8 | x8 ||[K:Db] x8 | x8 | %26
 ([A,=D]4 =G,2 B,2) | x8 | x8 | x8 | x8 | (G4 _G2 _E2) | x8 | x8 | %34
 [__B,D]4 ([E,_B,C-]2 [_A,-C])[G,A,] | x8 | x8 | x8 ||[K:E] ([=CE]4 [^CD-F-]2) [B,-DF][A,B,] | %39
 B,2 E2 z (G,^A,B,) | E4 ^B,CDC/B,/ | B,2 E2 x4 | x8 ||[K:C] x4 ([_A,_E-]2 [_CE]2) | x8 | %45
 [_A,=D]8 |[K:bass] x8 | x8 | x8 | x8 | x8 | x8 | x6 (3[G,G][^F,^F][E,E] | x8 | [G,E]6 !^![C^D]2 | %55
 [G,E]6 !^![^D^F]2 | !^![G,G]6 !^![C^D]2 | !^![G,E]6 !^![^D^F]2 |[K:treble] !^![G,G]6 !^![A,^F]2 | %59
 !^![^G,B,D=F]6 !^!E!^!^D | !^![=G,E]4 !^![^G,=B,=F]2 !^!E!^!^D | !^![=G,E]2 [_A,B,=F]4 !^!E!^!^D | %62
 x8 | x8 | x8 | x8 | x8 | x8 | x8 |] %69
V:3
 (D2 C2 =C2 | B,4 _B,2 | [A,D]4 [^G,B,]2 | ([=G,_B,]4) [B,C]2 | [CG]4 ([=CF]2) | [DF]4) ([=CF]2 | %6
 [DF]4) F,2- | F,6- ||[K:C][M:4/4] ^F,6 G,_A, | =A,8- | A,8 | [C,^F,]6- [C,F,] z || %12
[M:6/4]!p! ([E,,,E,,][D,,,D,,] [C,,,C,,]>[D,,,D,,] [E,,,E,,]3) z z2 (.G,,2 | %13
 ([E,,,E,,])[D,,,D,,] [C,,,C,,]>[D,,,D,,] [E,,,E,,]3) z z2 (.G,,2 || %14
[M:4/4] ([E,,,E,,])[D,,,D,,][C,,,C,,]>[D,,,D,,])!<(! ([E,,,E,,][D,,,D,,][C,,,C,,]>[D,,,D,,])!<)! || %15
[K:E] [D,,,D,,]8 | ([G,,,G,,][F,,,F,,][E,,,E,,]>[F,,,F,,]) G,,4 | %17
 ([G,,,G,,][F,,,F,,][E,,,E,,]>[F,,,F,,]) G,,4 | %18
 ([G,,,G,,][F,,,F,,][E,,,E,,]>[D,,,D,,]) ([E,,E,][D,,D,][C,,C,]>[B,,,B,,]) | %19
"_stacc." .[A,,,A,,].[B,,,B,,].[C,,C,]>.[D,,D,] .[E,,E,].[^E,,^E,].[F,,F,]>.[G,,G,] | %20
 .[F,,F,]>.[A,,A,] G,2 G, [E,G,][C,G,][^A,,E,] | %21
 [B,,F,]>[G,,D,G,][G,,D,G,]>[F,,F,] [F,,F,]2 (F,,,/4G,,,/4A,,,/4B,,,/4C,,/4D,,/4(3E,,/4F,,/4G,,/4 | %22
 A,,>)[F,,C,F,][F,,C,F,]>[E,,E,] [E,,E,]2 (E,,,/4F,,,/4G,,,/4A,,,/4B,,,/4C,,/4(3D,,/4E,,/4F,,/4 | %23
!f! G,,>)[E,,E,][E,,E,]>F,, F,,>[D,,D,][D,,D,]>[_B,,,_B,,] || %24
[K:Db] ([B,,,B,,][A,,,A,,][G,,,G,,]>[A,,,A,,]) ([B,,,B,,][A,,,A,,][G,,,G,,]>[A,,,A,,]) | %25
 ([B,,,B,,][A,,,A,,][G,,,B,,,G,,]>[A,,,A,,]) ([B,,,B,,][A,,,A,,][G,,,G,,]>[A,,,A,,]) | %26
"_dim." ([B,,,B,,][A,,,A,,][G,,,G,,]>[=F,,,=F,,]) ([=E,,,=E,,][F,,,F,,][^F,,,^F,,]>[=G,,,=G,,]) | %27
 ([=A,,,=A,,][=G,,,=G,,][=F,,,=F,,]>[G,,,G,,]) ([A,,,A,,][G,,,G,,][F,,,F,,]>[=E,,,=E,,]) | %28
 ([=D,,,=D,,]C,,B,,,>C,,) (D,,[C,,C,][B,,,B,,]>[C,,C,]) | %29
 ([=D,,=D,][C,,C,][B,,,B,,]>[C,,C,]) ([D,,D,][C,,C,][B,,,B,,]>[C,,C,]) | %30
 ([=D,,=D,][C,,C,][B,,,B,,]>[=A,,,=A,,]) ([=G,,,=G,,][^F,,,^F,,][=E,,,=E,,]>[_E,,,_E,,]) | %31
!8vb(! ([=D,,,=D,,][=E,,,=E,,][^F,,,^F,,]>[=G,,,=G,,]) ([_E,,,_E,,][=E,,,=E,,][=F,,,=F,,]>[_G,,,_G,,]) | %32
 ([F,,,F,,][E,,,E,,][D,,,D,,]>[E,,,E,,]) ([F,,,F,,][E,,,E,,][F,,,F,,]>[G,,,G,,])!8vb)! | %33
 ([=G,,,=G,,][A,,,A,,][=A,,,=A,,]>[B,,,B,,]) ([A,,,A,,][B,,,B,,][C,,C,]>[D,,D,]) | %34
 ([_E,,,_E,,][F,,,F,,][G,,,G,,]>[=G,,,=G,,]) ([A,,,A,,][=A,,,=A,,][B,,,B,,]>[C,,C,]) | %35
 ([D,,D,][C,,C,][B,,,B,,]>[A,,,A,,]) ([_E,,_E,][D,,D,][C,,C,]>[B,,,B,,]) | %36
 ([=A,,,=A,,][B,,,B,,][C,,C,]>[D,,D,]) ([E,,E,][_F,,_F,][_G,,_G,]>[=G,,=G,]) | %37
 ([B,,,B,,][=B,,,=B,,][C,,C,]>[D,,D,]) ([A,,,A,,][_B,,,_B,,][C,,C,]>[D,,D,]) || %38
[K:E] ([F,,,F,,][=G,,,=G,,][^G,,,^G,,]>[A,,,A,,]) ([B,,,B,,][=C,,=C,][^C,,^C,]>[D,,D,]) | %39
 ([E,,E,][D,,D,][C,,C,]>[^B,,,^B,,]) ([D,,D,][C,,C,][=C,,=C,]>[=B,,,=B,,]) | %40
 ([^A,,,^A,,][=A,,,=A,,][^G,,,^G,,]>[=G,,,=G,,]) ([F,,,F,,][A,,,A,,][C,,C,]>[D,,D,]) | %41
 ([E,,E,][D,,D,][C,,C,]>[B,,,B,,]) ([A,,,A,,][=G,,,=G,,][F,,,F,,]>[E,,,E,,]) | %42
 ([E,,E,][=C,,=C,][B,,,B,,]>[^A,,,^A,,]) ([B,,,B,,][=A,,,=A,,][=G,,,=G,,]>[A,,,A,,]) || %43
[K:C] ([B,,,B,,][A,,,A,,][G,,,G,,]>[^F,,,^F,,]) ([=F,,,=F,,][_G,,,_G,,][=G,,,=G,,]>[_A,,,_A,,]) | %44
 ([_B,,,_B,,][_A,,,_A,,][_G,,,_G,,]>[A,,,A,,]) ([B,,,B,,][A,,,A,,][G,,,G,,]>[A,,,A,,]) | %45
 ([_B,,,_B,,][_A,,,_A,,][_G,,,_G,,]>[A,,,A,,]) ([B,,,B,,][A,,,A,,][G,,,G,,]>[F,,,F,,]) | %46
"_cresc." ([_F,,,_F,,][_E,,,_E,,][_D,,,_D,,]>[E,,,E,,]) ([F,,,F,,][E,,,E,,][D,,,D,,]>[E,,,E,,]) | %47
 ([_F,,,_F,,][_E,,,_E,,][_D,,,_D,,]>[E,,,E,,]) ([F,,,F,,][E,,,E,,][D,,,D,,]>[E,,,E,,]) | %48
 ([_F,,,_F,,][_E,,,_E,,][_D,,,_D,,]>[E,,,E,,]) ([F,,,F,,][E,,,E,,][D,,,D,,]>[E,,,E,,]) | %49
 ([_F,,,_F,,][_E,,,_E,,][_D,,,_D,,]>[E,,,E,,]) ([F,,,F,,][E,,,E,,][D,,,D,,]>[_E,,,_E,,]) | %50
!p! [=E,,,=E,,]2"_cresc." C,,2 G,,,2 A,,,2 | E,,,2 C,,2 G,,,2 A,,,2 | %52
 E,,,2 !^![C,,C,]2 !^![G,,,G,,]2 !^![A,,,A,,]2 | %53
 !^![E,,,E,,]2 !^![C,,C,]2 !^![G,,,G,,]2 !^![A,,,A,,]2 | !^!E,6 !^!C,2 | !^!E,6 !^![C,^D,]2 | %56
 !^!E,6 !^!C,2 | !^!E,6 !^![C,^D,]2 | !^!E,6 !^![C,^D,]2 | !^!=D,6 !^![C,^F,]2 | %60
 !^!E,4 !^!=D,2 !^![C,^F,]2 | !^!E,2 D,4 !^![C,^F,]2 |!f! (E,,D,,C,,>"_dim."D,,) (E,,D,,C,,>D,,) | %63
 (E,,D,,C,,>D,,) E,,2 z2 | (E,,D,,C,,>D,,) (E,,D,,C,,>D,,) | (E,,D,,C,,>D,,) E,,2 z2 | %66
!p! (E,,D,,C,,>D,,) (E,,D,,C,,>D,,) | (E,,D,,C,,>D,,) E,,2 z2 | [E,,,E,,]8 |] %69
V:4
 D,6- | D,6 | D,6- | D,6 | x6 | x6 | x4 =C,2- | C,6- ||[K:C][M:4/4] C,8 | x8 | x8 | x8 || %12
[M:6/4] x12 | x12 ||[M:4/4] x8 ||[K:E] x8 | x4 G,,,2 C,,2 | x4 G,,,2 C,,2 | x8 | x8 | %20
 x2 G,,/A,,/4B,,/4C,/4D,/4E,/4F,/4 x4 | x8 | x8 | x8 ||[K:Db] x8 | x8 | x8 | x8 | x8 | x8 | x8 | %31
!8vb(! x8 | x8!8vb)! | x8 | x8 | x8 | x8 | x8 ||[K:E] x8 | x8 | x8 | x8 | x8 ||[K:C] x8 | x8 | x8 | %46
 x8 | x8 | x8 | x8 | x8 | x8 | x8 | x8 | !^![E,,,E,,]2 !^![C,,C,]2 !^![G,,,G,,]2 !^![A,,,A,,]2 | %55
 !^![E,,,E,,]2 !^![C,,C,]2 !^![G,,,G,,]2 !^![A,,,A,,]2 | %56
 !^![E,,,E,,]2 !^![C,,C,]2 !^![G,,,G,,]2 !^![A,,,A,,]2 | %57
 !^![E,,,E,,]2 !^![C,,C,]2 !^![G,,,G,,]2 !^![A,,,A,,]2 | %58
 !^![E,,,E,,]2 !^![C,,C,]2 !^![G,,,G,,]2 !^![A,,,A,,]2 | %59
 !^![E,,,E,,]2 !^![C,,C,]2 !^![=G,,,=G,,]2 !^![A,,,A,,]2 | %60
 !^![E,,,E,,]2 !^![C,,C,]2 !^![=G,,,=G,,]2 !^![A,,,A,,]2 | %61
 !^![E,,,E,,]2 !^![C,,C,]2 !^![=G,,,=G,,]2 !^![=A,,,=A,,]2 | E,,,2 C,,2 G,,,2 A,,,2 | %63
 E,,,2 C,,2 G,,,2 A,,,2 | E,,,2 C,,2 G,,,2 A,,,2 | E,,,2 C,,2 G,,,2 A,,,2 | E,,,2 z2 E,,,2 z2 | %67
 E,,,4 x2 G,,,2 | x8 |] %69
V:5
{/D,,-} D,,6- | D,,6- | D,,6- | D,,6- | D,,2 x4 | x6 | x6 | x6 || %8
[K:C][M:4/4] z2!pp! C,,2 G,,,2 A,,,2 | z2 C,,2 G,,,2 A,,,2 | z2 C,,2 G,,,2 A,,,2 | %11
 z2 C,,2 G,,,2 A,,,2 ||[M:6/4] E,,,4 z2 A,,,2 E,,,2 G,,,2 | E,,,4 z2 A,,,2 E,,,2 G,,,2 || %14
[M:4/4] E,,,2 x6 ||[K:E] x8 | x8 | x8 | x8 | x8 | x8 | x8 | x8 | x8 ||[K:Db] x8 | x8 | x8 | x8 | %28
 x8 | x8 | x8 |!8vb(! x8 | x8!8vb)! | x8 | x8 | x8 | x8 | x8 ||[K:E] x8 | x8 | x8 | x8 | x8 || %43
[K:C] x8 | x8 | x8 | x8 | x8 | x8 | x8 | x8 | x8 | x8 | x8 | x8 | x8 | x8 | x8 | x8 | x8 | x8 | %61
 x8 | x8 | x8 | x8 | x8 | x8 | x8 | x8 |] %69
V:6
 x6 | x6 | x6 | x6 | x6 | x6 | x6 | x6 ||[K:C][M:4/4] x8 | x8 | x8 | x8 ||[M:6/4] x10[K:bass] x2 | %13
 x12 ||[M:4/4] x8 ||[K:E] x8 | x8 | x8 | x6[K:treble] x2 | x8 | x8 | x8 | x8 | x8 ||[K:Db] x8 | %25
 x8 | x4 =D4 | x8 | x8 | x8 | x8 | (C4 =A,3 _B,) | x8 | x8 | x8 | x8 | x8 | x8 ||[K:E] x8 | x8 | %40
 C4 E2 F,A, | x8 | x8 ||[K:C] x8 | x8 | x4 z2!ff! !^!B,2 |[K:bass] x8 | x8 | x8 | x8 | x8 | x8 | %52
 x8 | x8 | x8 | x8 | x8 | x8 |[K:treble] x8 | x8 | x8 | x8 | x8 | x8 | x8 | x8 | x8 | x8 | x8 |] %69

